icons/svg/outbox.svg

﻿<?xml version="1.0" encoding="utf-8"?>
<!DOCTYPE svg PUBLIC "-//W3C//DTD SVG 1.1//EN" "http://www.w3.org/Graphics/SVG/1.1/DTD/svg11.dtd">
<svg xmlns="http://www.w3.org/2000/svg" xmlns:xlink="http://www.w3.org/1999/xlink" version="1.1" baseProfile="full" width="24" height="24" viewBox="0 0 24.00 24.00" enable-background="new 0 0 24.00 24.00" xml:space="preserve">
	<path fill="#000000" fill-opacity="1" stroke-width="1.33333" stroke-linejoin="miter" d="M 14,13.9996L 9.99997,13.9996L 9.99997,10.9996L 7.99995,10.9998L 11.9999,6.99977L 15.9998,10.9996L 14,10.9996L 14,13.9996M 15.9998,10.9996M 4.99005,15.0001L 4.99005,4.99988L 18.9998,4.99988L 18.9998,15.0001L 14.9998,15.0001C 14.9998,16.6568 13.6572,18.0001 11.9998,18.0001C 10.3431,18.0001 8.9999,16.6568 8.9999,15.0001L 4.99005,15.0001M 18.9998,2.99999L 4.99005,2.99999C 3.88555,2.99999 3.01024,3.89538 3.01024,4.99988L 2.99998,19.0001C 2.99998,20.1046 3.88555,21 4.99005,21L 18.9998,21C 20.1043,21 21,20.1046 21,19.0001L 21,4.99988C 21,3.89538 20.1043,2.99999 18.9998,2.99999"/>
</svg>

<svg xmlns="http://www.w3.org/2000/svg" version="1.1" baseProfile="full" width="24" height="24" viewBox="0 0 24.00 24.00" xml:space="preserve"><path fill="#000" fill-opacity="1" stroke-width="1.333" stroke-linejoin="miter" d="M14 14h-4v-3H8l4-4 4 4h-2v3m-9.01 1V5H19v10h-4c0 1.657-1.343 3-3 3s-3-1.343-3-3H4.99M19 3H4.99c-1.104 0-1.98.895-1.98 2L3 19c0 1.105.886 2 1.99 2H19c1.104 0 2-.895 2-2V5c0-1.105-.896-2-2-2"/></svg>
